X:415
T:Black Rogue, The
R:jig
D:Tommy Keane and Jacqueline McCarthy: Wind among the Reeds
Z:id:hn-jig-149
M:6/8
K:D
d|cAA BAG|cAA A2d|cAA BAG|AFD D2d|
cAA BAG|cAA AFD|~G3 BAG|AFD D2:|
|:e|~f3 gfg|afd cBA|~f3 gfg|afd dfg|
a2f gfe|fed efd|cAA BAG|AFD D2:|



